X:1180
T:"The Milliner's Daughter"  (reel)  1180
C:after Chief  F O'Neill
B:O'Neill's Music Of Ireland (The 1850) Lyon & Healy, Chicago, 1903 edition
Z:FROM O'NEILL'S TO NOTEWORTHY, FROM NOTEWORTHY TO ABC, MIDI AND .TXT BY VINCE
BRENNAN July 2003 (HTTP://WWW.SOSYOURMOM.COM)
I:abc2nwc
M:C|
L:1/8
K:G
G2(BG) DGBG|A2(eg) fdcA|G2(BG) D GBd|cAFG (AG) G2|
G2(BG) DGBG|A2(eg) fdcA|G2(BG) D GBd|cAFG (AG) G2||
dg (3({a}gfg) dg (3({a}gfg)|d=f (3({g}fef) df (3({g}fef)|dg (3({a}gfg) dg (3({a}gfg)|dcde fdcA|
dg (3({a}gfg) bgaf|dcde fefg|afge fdec|dcde =fdcA|]
